X:195
T:Glenbuchart Lodge
R:Reel
M:2/4
L:1/8
K:D % 2 sharps
D/2e/2|"D"fd de/2f/2|"G"gB Be/2d/2|"A7"cA gc|"D"d/2e/2f/2g/2 "A"a>g|"D"fd de/2f/2|"G"gB be/2d/2|"A7"c/2d/2e/2c/2 Ac|"D"d2d:||:\
A/2G/2|"D"FA dA|"G"BG GB/2A/2|"E7"^GB eB|"A7"cA A/2B/2A/2G/2|"D"FA dA|"G"BG e>d|"A7"c/2d/2e/2c/2 Ac|"D"d2 d:||


%  <A name="D1X196"></A>
